images/logotypes/logo_7.svg

<svg width="226" height="70" viewBox="0 0 226 70" fill="none" xmlns="http://www.w3.org/2000/svg">
<rect x="0.589355" width="224.822" height="70" rx="35" fill="white"/>
<path d="M81.7207 28.4403H85.3893V43.2975H81.7207V28.4403ZM86.8521 37.7089C86.8521 34.0289 89.1378 31.8232 92.5664 31.8232C95.995 31.8232 98.2807 34.0289 98.2807 37.7089C98.2807 41.3889 96.075 43.6175 92.5664 43.6175C89.0578 43.6175 86.8521 41.4689 86.8521 37.7089ZM94.6464 37.7089C94.6464 35.6861 93.8578 34.4975 92.6007 34.4975C91.3436 34.4975 90.5664 35.6404 90.5664 37.7089C90.5664 39.7775 91.3436 40.9089 92.6007 40.9089C93.8578 40.9089 94.6693 39.7775 94.6693 37.7203L94.6464 37.7089ZM99.7436 44.0632H103.286C103.448 44.4446 103.729 44.7629 104.088 44.9692C104.448 45.1756 104.864 45.2587 105.275 45.2061C106.681 45.2061 107.412 44.4518 107.412 43.3318V41.2746H107.424C107.121 41.9152 106.631 42.449 106.019 42.8061C105.407 43.1631 104.702 43.3264 103.995 43.2746C101.309 43.2746 99.5264 41.2289 99.5264 37.7089C99.5264 34.1889 101.229 31.9946 104.098 31.9946C104.823 31.9559 105.542 32.1427 106.155 32.5296C106.77 32.9165 107.248 33.4842 107.526 34.1546H107.424V32.0861H111.058V43.2175C111.058 45.9032 108.681 47.5832 105.184 47.5832C102.006 47.5718 99.9721 46.1203 99.7664 44.0746L99.7436 44.0632ZM107.424 37.7089C107.424 35.9146 106.601 34.7832 105.298 34.7832C103.995 34.7832 103.195 35.9261 103.195 37.7089C103.195 39.4918 103.984 40.5432 105.298 40.5432C106.612 40.5432 107.424 39.5718 107.424 37.7089ZM112.509 37.7089C112.509 34.0289 114.795 31.8232 118.224 31.8232C121.652 31.8232 123.938 34.0289 123.938 37.7089C123.938 41.3889 121.721 43.6175 118.224 43.6175C114.726 43.6175 112.532 41.4689 112.532 37.7089H112.509ZM120.304 37.7089C120.304 35.6861 119.504 34.4975 118.258 34.4975C117.012 34.4975 116.224 35.6404 116.224 37.7089C116.224 39.7775 117.001 40.9089 118.258 40.9089C119.515 40.9089 120.326 39.7775 120.326 37.7203L120.304 37.7089ZM125.424 29.3775C125.408 29.0038 125.504 28.6338 125.7 28.3153C125.896 27.9967 126.183 27.7441 126.523 27.5899C126.864 27.4357 127.243 27.387 127.612 27.4501C127.981 27.513 128.322 27.6849 128.592 27.9435C128.862 28.2023 129.049 28.5358 129.128 28.9014C129.207 29.267 129.175 29.6479 129.036 29.995C128.897 30.3422 128.657 30.6398 128.347 30.8495C128.037 31.0592 127.672 31.1714 127.298 31.1718C127.059 31.1778 126.821 31.1363 126.598 31.0498C126.375 30.9632 126.172 30.8331 125.999 30.6673C125.827 30.5015 125.69 30.3031 125.595 30.0835C125.5 29.8641 125.449 29.628 125.446 29.3889L125.424 29.3775ZM125.424 32.0746H129.138V43.3432H125.481L125.424 32.0746ZM142.498 37.7089C142.498 41.3775 140.852 43.5032 138.052 43.5032C137.335 43.5474 136.622 43.3705 136.009 42.9966C135.396 42.6225 134.912 42.0694 134.624 41.4118H134.555V46.9661H130.886V32.1089H134.532V34.1203H134.601C134.88 33.4498 135.358 32.8815 135.972 32.4929C136.586 32.1043 137.304 31.9144 138.029 31.9489C140.909 31.9261 142.566 34.0403 142.566 37.7203L142.498 37.7089ZM138.761 37.7089C138.761 35.9261 137.926 34.7718 136.635 34.7718C135.344 34.7718 134.532 35.9146 134.521 37.7089C134.509 39.5032 135.344 40.6346 136.635 40.6346C137.926 40.6346 138.829 39.5718 138.829 37.7203L138.761 37.7089ZM148.761 31.8118C151.835 31.8118 153.744 33.2632 153.766 35.5946H150.418C150.418 34.7832 149.744 34.2804 148.738 34.2804C147.732 34.2804 147.252 34.6689 147.252 35.2518C147.252 35.8346 147.675 36.0175 148.521 36.1889L150.875 36.6689C153.161 37.1489 154.075 38.0632 154.075 39.7661C154.075 42.0518 151.961 43.6061 148.818 43.6061C145.675 43.6061 143.629 42.0975 143.481 39.8004H147.035C147.138 40.6346 147.801 41.1261 148.875 41.1261C149.949 41.1261 150.452 40.7832 150.452 40.1775C150.452 39.5718 150.109 39.4689 149.229 39.2861L147.104 38.8404C144.898 38.3718 143.744 37.2175 143.744 35.4918C143.812 33.2518 145.732 31.8232 148.829 31.8232L148.761 31.8118ZM166.361 43.3318H162.806V41.2175H162.738C162.539 41.9228 162.106 42.5391 161.509 42.9649C160.913 43.3909 160.189 43.6008 159.458 43.5603C158.906 43.5783 158.355 43.4793 157.844 43.2697C157.333 43.0602 156.872 42.7449 156.491 42.3446C156.109 41.9441 155.818 41.4677 155.634 40.9465C155.45 40.4254 155.378 39.8711 155.424 39.3203V32.0861H159.092V38.5318C159.092 39.8575 159.789 40.5775 160.932 40.5775C161.201 40.5754 161.465 40.5159 161.708 40.403C161.952 40.29 162.168 40.1261 162.341 39.9224C162.516 39.7188 162.645 39.48 162.72 39.2224C162.793 38.9647 162.811 38.6942 162.772 38.4289V32.0861H166.429L166.361 43.3318ZM168.132 32.0746H171.698V34.2461H171.778C171.974 33.5504 172.397 32.9398 172.978 32.5096C173.56 32.0795 174.267 31.8542 174.989 31.8689C175.715 31.8058 176.438 32.0157 177.017 32.4574C177.596 32.8991 177.989 33.541 178.121 34.2575H178.281C178.509 33.5371 178.969 32.9125 179.589 32.4806C180.209 32.0486 180.955 31.8336 181.709 31.8689C182.211 31.8498 182.712 31.9369 183.177 32.1245C183.643 32.3119 184.064 32.5957 184.412 32.9571C184.761 33.3185 185.028 33.7495 185.198 34.2217C185.37 34.694 185.438 35.1968 185.401 35.6975V43.3432H181.709V36.6346C181.709 35.4918 181.172 34.8518 180.132 34.8518C179.901 34.848 179.673 34.8942 179.461 34.987C179.25 35.0799 179.062 35.2174 178.909 35.3899C178.756 35.5626 178.642 35.7662 178.574 35.987C178.508 36.2078 178.49 36.4403 178.521 36.6689V43.3432H175.024V36.6003C175.024 35.4575 174.464 34.8518 173.458 34.8518C173.225 34.8499 172.994 34.8979 172.781 34.9926C172.568 35.0873 172.378 35.2264 172.222 35.4007C172.068 35.575 171.953 35.7803 171.884 36.003C171.814 36.2257 171.794 36.4606 171.824 36.6918V43.3432H168.155L168.132 32.0746Z" fill="#252525"/>
<path d="M74.4636 29.4117C74.4637 27.1371 73.7769 24.9155 72.493 23.0378C71.2091 21.1602 69.388 19.714 67.2683 18.8889C65.1486 18.0637 62.8291 17.898 60.6137 18.4135C58.3981 18.9289 56.39 20.1014 54.8522 21.7774H40.5894V51.8803H70.7036V37.8117C71.8856 36.7546 72.8314 35.4601 73.4793 34.0126C74.1272 32.5652 74.4626 30.9976 74.4636 29.4117ZM68.6693 29.4117C68.6716 30.5017 68.3505 31.5678 67.7466 32.4753C67.1426 33.3826 66.2832 34.0905 65.2768 34.5091C64.2704 34.9278 63.1625 35.0386 62.0931 34.8273C61.0238 34.6161 60.0412 34.0923 59.2697 33.3224C58.4981 32.5524 57.9724 31.5709 57.7589 30.502C57.5454 29.4332 57.6539 28.325 58.0705 27.3178C58.487 26.3105 59.1931 25.4495 60.0992 24.8437C61.0053 24.238 62.0708 23.9146 63.1608 23.9146C64.6197 23.9146 66.0192 24.4934 67.0518 25.524C68.0846 26.5545 68.6664 27.9528 68.6693 29.4117ZM64.9093 46.086H46.3836V27.5717H52.0293C51.9203 28.1792 51.8629 28.7947 51.8579 29.4117C51.861 32.4085 53.0528 35.2817 55.1718 37.4008C57.2908 39.5197 60.164 40.7116 63.1608 40.7146C63.7467 40.7115 64.3314 40.6618 64.9093 40.566V46.086Z" fill="#252525"/>
</svg>

<svg width="226" height="70" fill="none" xmlns="http://www.w3.org/2000/svg"><rect x=".589" width="224.822" height="70" rx="35" fill="#fff"/><path d="M81.72 28.44h3.67v14.857h-3.67V28.44Zm5.132 9.269c0-3.68 2.286-5.886 5.714-5.886 3.429 0 5.715 2.206 5.715 5.886s-2.206 5.908-5.715 5.908c-3.508 0-5.714-2.148-5.714-5.908Zm7.794 0c0-2.023-.788-3.212-2.045-3.212s-2.035 1.143-2.035 3.212.778 3.2 2.035 3.2c1.257 0 2.068-1.131 2.068-3.189l-.023-.011Zm5.098 6.354h3.542a1.901 1.901 0 0 0 1.989 1.143c1.406 0 2.137-.754 2.137-1.874v-2.057h.012a3.512 3.512 0 0 1-3.429 2c-2.686 0-4.469-2.046-4.469-5.566s1.703-5.714 4.572-5.714a3.504 3.504 0 0 1 3.428 2.16h-.102v-2.069h3.634v11.132c0 2.685-2.377 4.365-5.874 4.365-3.178-.011-5.212-1.463-5.418-3.508l-.022-.012Zm7.68-6.354c0-1.794-.823-2.926-2.126-2.926s-2.103 1.143-2.103 2.926c0 1.783.789 2.834 2.103 2.834s2.126-.971 2.126-2.834Zm5.085 0c0-3.68 2.286-5.886 5.715-5.886 3.428 0 5.714 2.206 5.714 5.886s-2.217 5.908-5.714 5.908c-3.498 0-5.692-2.148-5.692-5.908h-.023Zm7.795 0c0-2.023-.8-3.212-2.046-3.212-1.246 0-2.034 1.143-2.034 3.212s.777 3.2 2.034 3.2c1.257 0 2.068-1.131 2.068-3.189l-.022-.011Zm5.12-8.332a1.874 1.874 0 1 1 1.874 1.795 1.81 1.81 0 0 1-1.703-1.088 1.806 1.806 0 0 1-.149-.695l-.022-.011Zm0 2.698h3.714v11.268h-3.657l-.057-11.268Zm17.074 5.634c0 3.668-1.646 5.794-4.446 5.794a3.509 3.509 0 0 1-3.428-2.091h-.069v5.554h-3.669V32.11h3.646v2.011h.069a3.53 3.53 0 0 1 3.428-2.171c2.88-.023 4.537 2.091 4.537 5.771l-.068-.011Zm-3.737 0c0-1.783-.835-2.937-2.126-2.937s-2.103 1.143-2.114 2.937c-.012 1.794.823 2.926 2.114 2.926s2.194-1.063 2.194-2.915l-.068-.011Zm10-5.897c3.074 0 4.983 1.451 5.005 3.783h-3.348c0-.812-.674-1.315-1.68-1.315-1.006 0-1.486.389-1.486.972s.423.765 1.269.937l2.354.48c2.286.48 3.2 1.394 3.2 3.097 0 2.286-2.114 3.84-5.257 3.84s-5.189-1.509-5.337-3.806h3.554c.103.835.766 1.326 1.84 1.326s1.577-.343 1.577-.948c0-.606-.343-.71-1.223-.892l-2.125-.446c-2.206-.468-3.36-1.623-3.36-3.348.068-2.24 1.988-3.669 5.085-3.669l-.068-.011Zm17.6 11.52h-3.555v-2.114h-.068a3.22 3.22 0 0 1-3.28 2.342 3.92 3.92 0 0 1-4.034-4.24v-7.234h3.668v6.446c0 1.326.697 2.046 1.84 2.046a1.874 1.874 0 0 0 1.84-2.15v-6.342h3.657l-.068 11.246Zm1.771-11.257h3.566v2.171h.08a3.263 3.263 0 0 1 3.211-2.377 2.926 2.926 0 0 1 3.132 2.389h.16a3.425 3.425 0 0 1 3.428-2.39 3.564 3.564 0 0 1 3.692 3.83v7.645h-3.692v-6.708c0-1.143-.537-1.783-1.577-1.783a1.605 1.605 0 0 0-1.558 1.135 1.62 1.62 0 0 0-.053.682v6.674h-3.497V36.6c0-1.142-.56-1.748-1.566-1.748a1.634 1.634 0 0 0-1.634 1.84v6.651h-3.669l-.023-11.268Zm-93.668-2.663a11.292 11.292 0 0 0-19.612-7.635H40.59V51.88h30.115V37.812a11.278 11.278 0 0 0 3.76-8.4Zm-5.795 0a5.509 5.509 0 1 1-11.017.023 5.509 5.509 0 0 1 11.017-.023Zm-3.76 16.674H46.384V27.572h5.645a10.92 10.92 0 0 0-.171 1.84A11.315 11.315 0 0 0 63.16 40.715a11.05 11.05 0 0 0 1.748-.149v5.52Z" fill="#252525"/></svg>
